X:14
T:The Reel of Rio
R:reel
C:Sean Ryan
O:20th Century Irish
S:Silver Apple News,1993
B:The Hidden Ireland, Sean Ryan
D:Kinnon Beaton, Friday Night Lively
N:Contacts ...
N:..... Cranford Publications <http://www.cranfordpub.com>
H:Copyrights:Brian Ryan ... <ryan@cranfordpub.com>
Z:This abc transcription is for personal use only,
Z:provided this notice remains attached.
Z:Used by permission
Z:Paul Stewart Cranford <psc@cranfordpub.com>
Q:300
L:1/8
M:C|
K:G
E|DEGA B3 d|eg (3gfg agea|gede gedB|(3(ABc) BA GE E2|!
DEGA B3 d|eg (3gfg agea|gede gedB|(3(ABc) BA G3:|!
B|dg (3(gfg) ag (3(gfg)|bg (3(gfg) edBd|eB (3(BAB) GABd|gedB AGEG|!
DEGA B3 d|eg (3(gfg) agea|gede gedB|(3(ABc) BA G3:|!

